X: 1
T:Roderick McLeod
M:6/8
L:1/8
Q:80
C:S.S. Kelly 1976
S:Jig
K:HP
|: a|
A2{d}c{g}B3/2{d}c/2e|
{g}f3/2e/2{A}e{g}e3/2c/2{G}c|
{g}A2{d}c{g}B3/2{d}c/2e|  !
{g}f3/2B/2{G}B{gBd}B2a| |
A2{d}c{g}B3/2{d}c/2e|
{g}f3/2e/2{A}e{g}e3/2c/2{G}c|  !
{g}f3/2g/2ae3/2c/2{d}A|
{g}B3/2{d}A/2{e}A{GAG}A2:| |:
a|  !
f3/2e/2{A}e{g}e3/2c/2{G}c|
{g}f3/2e/2{A}e{g}e3/2c/2{G}c|
{g}A3/2{d}c/2e{g}f3/2e/2{A}e|  !
{g}d3/2B/2{G}B{gBd}B2a| |
f3/2e/2{A}e{g}e3/2c/2{G}c|
{g}f3/2e/2{A}e{g}e3/2c/2{G}c|  !
{g}f3/2g/2ae3/2c/2{d}A|
{g}B3/2{d}A/2{e}A{GAG}A2:| |:
e|  !
{g}A2{d}c{g}c/2e3/2A|
{g}d/2f3/2A{gcd}c2B|
{g}A2{d}c{g}B3/2{d}c/2e|  !
{g}f3/2B/2{G}B{gBd}B2e| |
{g}A2{d}c{g}c/2e3/2A|
{g}d/2f3/2Aa2e|  !
{g}f3/2g/2ae3/2c/2{d}A|
{g}B3/2{d}A/2{e}A{GAG}A2:| |:
e|  !
a3/2g/2af3/2g/2{a}e|
{g}f3/2d/2f{gef}e2|
{g}A3/2{d}A/2{e}A{gcd}c2f|  !
{g}e3/2c/2{d}B{gcd}c2e|
a3/2g/2af3/2g/2{a}e|
{g}f3/2d/2fa2e|  !
{g}f3/2g/2ae3/2c/2{d}A|
{g}B3/2{d}A/2{e}A{GAG}A2:|
